icon-themes/sifr_svg/cmd/lc_thesaurusdialog.svg

<svg viewBox="0 0 24 24" xmlns="http://www.w3.org/2000/svg"><g fill="#555753"><path d="m6.5 1c-1.930711-.00000271-3.496768 1.5634326-3.5 3.4941406v.0058594 16.5c0 1.108.892 2 2 2h14.871094l-2-2h-12.871094v-13h14v2.779297c1.156679 1.379609 1.572266 2.836561 1.572266 4.335937v2.328125l.732422.732422v-12.175781h-1.304688v-2h-1v-3h-.464844-1.535156zm0 2h10.5v1h-11v1h11 1v1h-11.5v-.0058594c-.846866-.0629009-1.49944-.7129272-1.5-1.4941406.00056-.7812134.653134-1.4312379 1.5-1.4941406zm9.5 8v1.503906c.628416.471311.998772 1.210576 1 1.996094 0 1.380712-1.119288 2.5-2.5 2.5-.786206-.000614-1.526324-.371035-1.998047-1h-1.501953v1.857422c1.371429 1.321851 2.804414 1.714844 4.115234 1.714844h2.742188l3.427734 3.427734h1.714844v-1.714844l-3.427734-3.427734v-2.742188c0-1.511964-.368607-2.743805-1.714844-4.115234zm-9 1v1h3v1h-2.5c-.8284271 0-1.5.671573-1.5 1.5s.6715729 1.5 1.5 1.5h2.5v-1h-2.5c-.2761424 0-.5-.223858-.5-.5s.2238576-.5.5-.5h2.5 1v-2c0-.552285-.447715-1-1-1zm6 0v1h2v-1zm2.691406 1.601562-2.089844 2.089844c.256611.194432.567885.308336.898438.308594.078698 0 .153379-.010304.228516-.021484l1.248046-1.248047c.011277-.075119.023341-.149829.023438-.228516-.000517-.330825-.113638-.643459-.308594-.900391z"/><circle cx="11" cy="10" opacity=".35" r="0"/></g></svg>

<svg xmlns="http://www.w3.org/2000/svg" viewBox="0 0 24 24">
  <path
     style="fill:#555753"
     d="M 6.5 1 C 4.569289 0.99999729 3.003232 2.5634326 3 4.4941406 L 3 4.5 L 3 21 C 3 22.108 3.892 23 5 23 L 19.871094 23 L 17.871094 21 L 5 21 L 5 8 L 19 8 L 19 10.779297 C 20.156679 12.158906 20.572266 13.615858 20.572266 15.115234 L 20.572266 17.443359 L 21.304688 18.175781 L 21.304688 6 L 20 6 L 20 4 L 19 4 L 19 1 L 18.535156 1 L 17 1 L 6.5 1 z M 6.5 3 L 17 3 L 17 4 L 6 4 L 6 5 L 17 5 L 18 5 L 18 6 L 6.5 6 L 6.5 5.9941406 C 5.653134 5.9312397 5.00056 5.2812134 5 4.5 C 5.00056 3.7187866 5.653134 3.0687621 6.5 3.0058594 L 6.5 3 z M 16 11 L 16 12.503906 C 16.628416 12.975217 16.998772 13.714482 17 14.5 C 17 15.880712 15.880712 17 14.5 17 C 13.713794 16.999386 12.973676 16.628965 12.501953 16 L 11 16 L 11 17.857422 C 12.371429 19.179273 13.804414 19.572266 15.115234 19.572266 L 17.857422 19.572266 L 21.285156 23 L 23 23 L 23 21.285156 L 19.572266 17.857422 L 19.572266 15.115234 C 19.572266 13.60327 19.203659 12.371429 17.857422 11 L 16 11 z M 7 12 L 7 13 L 10 13 L 10 14 L 7.5 14 C 6.6715729 14 6 14.671573 6 15.5 C 6 16.328427 6.6715729 17 7.5 17 L 10 17 L 10 16 L 7.5 16 C 7.2238576 16 7 15.776142 7 15.5 C 7 15.223858 7.2238576 15 7.5 15 L 10 15 L 11 15 L 11 13 C 11 12.447715 10.552285 12 10 12 L 7 12 z M 13 12 L 13 13 L 15 13 L 15 12 L 13 12 z M 15.691406 13.601562 L 13.601562 15.691406 C 13.858173 15.885838 14.169447 15.999742 14.5 16 C 14.578698 16 14.653379 15.989696 14.728516 15.978516 L 15.976562 14.730469 C 15.987839 14.65535 15.999903 14.58064 16 14.501953 C 15.999483 14.171128 15.886362 13.858494 15.691406 13.601562 z "
     />
  <circle
     r="0"
     cy="10"
     cx="11"
     style="opacity:0.35;fill:#555753"
     />
</svg>
